public/images/logos/eventim.svg

<?xml version="1.0" encoding="UTF-8" standalone="no"?>
<!-- Created with Vectornator (http://vectornator.io/) -->

<svg height="32" stroke-miterlimit="10" style="clip-rule:evenodd;fill-rule:nonzero;stroke-linecap:round;stroke-linejoin:round" version="1.1" viewBox="0 0 32 32" width="32" xml:space="preserve" id="svg10" sodipodi:docname="eventim.svg" inkscape:version="1.4-beta2 (9aaf4f34, 2024-07-30)" xmlns:inkscape="http://www.inkscape.org/namespaces/inkscape" xmlns:sodipodi="http://sodipodi.sourceforge.net/DTD/sodipodi-0.dtd" xmlns="http://www.w3.org/2000/svg" xmlns:svg="http://www.w3.org/2000/svg"><sodipodi:namedview id="namedview10" pagecolor="#ffffff" bordercolor="#000000" borderopacity="0.25" inkscape:showpageshadow="2" inkscape:pageopacity="0.0" inkscape:pagecheckerboard="0" inkscape:deskcolor="#d1d1d1" inkscape:zoom="1.1832005" inkscape:cx="61.697064" inkscape:cy="30.848532" inkscape:window-width="1440" inkscape:window-height="872" inkscape:window-x="0" inkscape:window-y="0" inkscape:window-maximized="1" inkscape:current-layer="svg10" />
<defs id="defs1" />

<clipPath id="ArtboardFrame">
<rect height="80" width="210" x="0" y="0" id="rect1" />
</clipPath>
<g opacity="1" id="g9" style="clip-rule:evenodd;fill-rule:nonzero;stroke-linecap:round;stroke-linejoin:round;fill:#000000" transform="matrix(0.93090909,0,0,0.93090909,-163.49091,-8.6456878)">

<path d="m 188.717,30.5987 v 0 c 3.576,3.576 3.692,9.1706 3.692,13.0349 h 0.865 c 0,-3.8643 0.115,-9.4589 3.691,-13.0349 v 0 c 3.576,-3.5759 9.171,-3.6913 13.035,-3.6913 v -0.8651 c -3.864,0 -9.459,-0.1154 -13.035,-3.6913 v 0 c -3.576,-3.5759 -3.691,-9.1706 -3.691,-13.03488 h -0.923 c 0,3.86428 -0.115,9.45898 -3.691,13.03488 v 0 c -3.576,3.5759 -9.171,3.6913 -13.035,3.6913 v 0.8651 c 3.922,0 9.516,0.1154 13.092,3.6913 z" fill="#000000" fill-rule="nonzero" opacity="1" stroke="none" id="path9" style="fill:#000000" />
</g>
</svg>

<?xml version="1.0" encoding="UTF-8" standalone="no"?>
<!DOCTYPE svg PUBLIC "-//W3C//DTD SVG 1.1//EN" "http://www.w3.org/Graphics/SVG/1.1/DTD/svg11.dtd">
<!-- Created with Vectornator (http://vectornator.io/) -->
<svg height="100%" stroke-miterlimit="10" style="fill-rule:nonzero;clip-rule:evenodd;stroke-linecap:round;stroke-linejoin:round;" version="1.1" viewBox="0 0 210 80" width="100%" xml:space="preserve" xmlns="http://www.w3.org/2000/svg" xmlns:xlink="http://www.w3.org/1999/xlink">
<defs/>
<path d="M0 0L210 0L210 80L0 80L0 0Z" fill="#000000" fill-opacity="0" fill-rule="nonzero" opacity="1" stroke="none"/>
<clipPath id="ArtboardFrame">
<rect height="80" width="210" x="0" y="0"/>
</clipPath>
<g clip-path="url(#ArtboardFrame)" id="Sem-Título">
<g opacity="1">
<g opacity="1">
<g opacity="1">
<path d="M1.73029 46.2291C2.88382 43.749 4.44109 41.788 6.57512 40.4037C8.65147 38.9618 11.0739 38.2697 13.8424 38.2697C17.9951 38.2697 21.2826 39.7693 23.5897 42.8261C25.9544 45.883 27.1079 49.8627 27.1079 54.7652L27.1079 56.9569L7.72865 56.9569C7.90168 59.1486 8.65147 60.9942 9.92035 62.3785C11.1892 63.7627 12.9772 64.5125 15.2266 64.5125C16.4378 64.5125 17.649 64.2241 18.8602 63.705C20.0714 63.1859 21.1096 62.4361 21.9747 61.5133L25.493 66.1274C24.1088 67.627 22.4938 68.7806 20.5328 69.5303C18.5718 70.3378 16.5531 70.6839 14.4191 70.6839C11.593 70.6839 9.0552 69.9918 6.8635 68.6652C4.67179 67.3386 2.99918 65.4353 1.78797 62.9552C0.576765 60.4751 0 57.649 0 54.4768C0 51.4199 0.576765 48.7091 1.73029 46.2291ZM9.28591 46.5751C8.30541 48.017 7.78632 49.6896 7.72865 51.6506L19.6677 51.6506C19.61 49.7473 19.0909 48.0747 18.1104 46.5751C17.1876 45.1332 15.688 44.3834 13.6116 44.3834C11.7083 44.4411 10.2664 45.1332 9.28591 46.5751Z" fill="#000000" fill-rule="nonzero" opacity="1" stroke="none"/>
<path d="M25.8391 39.0195L34.0291 39.0195L40.2005 60.7059L46.4872 39.0195L54.6773 39.0195L44.4109 69.8764L36.1055 69.8764L25.8391 39.0195Z" fill="#000000" fill-rule="nonzero" opacity="1" stroke="none"/>
<path d="M55.1964 46.2291C56.3499 43.749 57.9072 41.788 60.0412 40.4037C62.1176 38.9618 64.54 38.2697 67.3084 38.2697C71.4611 38.2697 74.7487 39.7693 77.0558 42.8261C79.4205 45.883 80.574 49.8627 80.574 54.7652L80.574 56.9569L61.1947 56.9569C61.3678 59.1486 62.1176 60.9942 63.3864 62.3785C64.6553 63.7627 66.4433 64.5125 68.6927 64.5125C69.9039 64.5125 71.1151 64.2241 72.3263 63.705C73.5375 63.1859 74.5757 62.4361 75.4408 61.5133L78.9591 66.1274C77.5748 67.627 75.9599 68.7806 73.9989 69.5303C72.0379 70.3378 70.0192 70.6839 67.8852 70.6839C65.059 70.6839 62.5213 69.9918 60.3296 68.6652C58.1379 67.3386 56.4653 65.4353 55.2541 62.9552C54.0428 60.4751 53.4661 57.649 53.4661 54.4768C53.4661 51.4199 54.0428 48.7091 55.1964 46.2291ZM62.8097 46.5751C61.8292 48.017 61.3101 49.6896 61.2524 51.6506L73.1914 51.6506C73.1338 49.7473 72.6147 48.0747 71.6342 46.5751C70.7113 45.1332 69.2118 44.3834 67.1354 44.3834C65.1744 44.4411 63.7325 45.1332 62.8097 46.5751Z" fill="#000000" fill-rule="nonzero" opacity="1" stroke="none"/>
<path d="M100.184 49.5166C100.184 46.5174 98.8575 44.9602 96.1467 44.9602C94.9355 44.9602 93.8973 45.3062 92.9168 46.056C91.9363 46.8058 91.1865 47.7286 90.4944 48.7668L90.4944 69.7611L82.8234 69.7611L82.8234 39.0195L90.4944 39.0195L90.4944 43.0569C91.4172 41.7303 92.6284 40.6344 94.301 39.6539C95.916 38.7311 97.7039 38.2697 99.5496 38.2697C102.318 38.2697 104.394 39.0195 105.721 40.5191C107.105 42.0187 107.74 44.095 107.74 46.6905L107.74 69.8764L100.069 69.8764L100.069 49.5166L100.184 49.5166Z" fill="#000000" fill-rule="nonzero" opacity="1" stroke="none"/>
<path d="M115.295 68.6075C114.026 67.2233 113.392 65.2046 113.392 62.4938L113.392 45.7676L109.355 45.7676L109.355 39.0195L113.392 39.0195L113.392 30.5411L121.063 30.5411L121.063 38.9618L126.196 38.9618L126.196 45.6523L121.063 45.6523L121.063 60.5905C121.063 61.6287 121.236 62.3785 121.64 62.9552C122.043 63.532 122.562 63.7627 123.312 63.7627C123.774 63.7627 124.235 63.705 124.639 63.532C125.043 63.359 125.389 63.1283 125.619 62.8976L127.234 68.7806C125.908 69.9918 123.947 70.5685 121.294 70.5685C118.525 70.6262 116.564 69.9341 115.295 68.6075Z" fill="#000000" fill-rule="nonzero" opacity="1" stroke="none"/>
<path d="M129.368 33.1365C128.445 32.2137 127.984 31.1755 127.984 29.9066C127.984 28.6377 128.445 27.5419 129.368 26.6191C130.291 25.6962 131.387 25.2348 132.598 25.2348C133.867 25.2348 134.963 25.6962 135.828 26.6191C136.751 27.5419 137.155 28.6377 137.155 29.9066C137.155 31.1755 136.693 32.2714 135.828 33.1365C134.905 34.0593 133.867 34.4631 132.598 34.4631C131.329 34.4631 130.291 34.0016 129.368 33.1365ZM128.734 39.0195L136.405 39.0195L136.405 69.8764L128.734 69.8764L128.734 39.0195Z" fill="#000000" fill-rule="nonzero" opacity="1" stroke="none"/>
<path d="M173.202 49.1129C173.202 46.4021 172.049 45.0179 169.684 45.0179C168.588 45.0179 167.55 45.4216 166.627 46.1714C165.704 46.9212 164.955 47.844 164.378 48.8822L164.378 69.8764L156.707 69.8764L156.707 49.1129C156.707 46.4021 155.553 45.0179 153.189 45.0179C152.151 45.0179 151.112 45.4216 150.132 46.1714C149.151 46.9212 148.402 47.844 147.882 48.8822L147.882 69.8764L140.211 69.8764L140.211 39.0195L147.94 39.0195L147.94 43.0569C148.632 41.8456 149.786 40.7498 151.401 39.7693C153.016 38.7888 154.804 38.2697 156.592 38.2697C158.553 38.2697 160.168 38.7311 161.494 39.6539C162.821 40.5768 163.628 41.9033 164.09 43.6336C164.839 42.1917 166.108 40.9228 167.781 39.8846C169.511 38.8465 171.241 38.2697 173.087 38.2697C175.567 38.2697 177.47 38.9618 178.855 40.2884C180.239 41.6149 180.873 43.6913 180.873 46.4598L180.873 69.9341L173.202 69.9341L173.202 49.1129L173.202 49.1129Z" fill="#000000" fill-rule="nonzero" opacity="1" stroke="none"/>
</g>
<path d="M188.717 30.5987L188.717 30.5987C192.293 34.1747 192.409 39.7693 192.409 43.6336L193.274 43.6336C193.274 39.7693 193.389 34.1747 196.965 30.5987L196.965 30.5987C200.541 27.0228 206.136 26.9074 210 26.9074L210 26.0423C206.136 26.0423 200.541 25.9269 196.965 22.351L196.965 22.351C193.389 18.7751 193.274 13.1804 193.274 9.31612L192.351 9.31612C192.351 13.1804 192.236 18.7751 188.66 22.351L188.66 22.351C185.084 25.9269 179.489 26.0423 175.625 26.0423L175.625 26.9074C179.547 26.9074 185.141 27.0228 188.717 30.5987Z" fill="#000000" fill-rule="nonzero" opacity="1" stroke="none"/>
</g>
</g>
</g>
</svg>
